X:1
T:Title
%%score [ 1 2 3 4 ]
L:1/8
Q:1/4=240
M:4/4
K:F
V:1 treble nm="S."
V:2 treble-8 nm="A."
V:3 treble-8 transpose=12 nm="T."
V:4 bass nm="B."
V:1
 z16 | z16 | z8 F8 | F6 G2 A4 F4 | G4 A4 B8 | A4 F4 F6 G2 | A4 F4 G4 A4 | B8 A4 A4 | A6 A2 G4 F4 | %9
w: ||Een|meys- ken eens voer-|by pas- seer-|de, Een meys- ken|eens voer- by pas-|seer- de, aan|hoer- de ee- nen|
 F4 E4 F8- | F8 z8 | z8 z4 A4 | A6 A2 G4 F4 | F4 E4 F8 | F4 F2 G2 A2 F2 G2 A2 | B8 A8 | %16
w: soe- ten rel,||aan|hoer- de ee- nen|soe- ten rel,|Hoe dat een meys- ken di- vi-|seer- de,|
 z4 F4 F6 G2 | A2 F2 G2 A2 B4 A4 | A4 A2 A2 G4 F4 | F4 E2 E2 F8- | F8 z8 | G8 A8- | A4 A4 G4 F4 | %23
w: Hoe dat een|meys- ken di- vi- seer- de|te- ghen een hae- re|nich- te soe wel,||te- ghen|* een hae- re|
 F4 E2 E2 | !3!F8 F4 | G4 G8 | F8 F4 | D4 E8 | F8 z4 | A8 A4 | c6 c2 c4 | B4 G8 | A8 G4 | %33
w: nich- te soe|wel. Com-|mee- ret|wel naer|u- wen|rel,|d'een com-|mee- re kent|d'an- der|wel. Com-|
 G6 G2 G4 | G6 G2 F4 | F8 E4 | F8 G4 | G6 G2 G4 | G6 G2 F4 | F8 E4 | F8 F4 | F8 F4 | B8 B4 | %43
w: mee- re, com-|mee- re, com-|mee- ret|wel, Com-|mee- re, com-|mee- re, com-|mee- ret|wel, Com-|mee- ret|wel met|
 A8 F4 | G8 z4 | G6 G2 G4 | c6 c2 B4 | A8 G4 | F8 F4 | F8 F4 | F8 F4 | F8 F4 | E8 z4 | E6 E2 E4 | %54
w: moe- de|fel,|d'ee- ne com-|mee- re kent|d'an- der|wel, Com-|mee- ret|wel met|moe- de|fel,|d'ee- ne com-|
 E6 E2 E4 | F8 E4 | F12- |[M:4/4] F16- | F8 z8 | z4 c4 c4 c2 B2 | A4 A2 G2 A4 c4 | B4 A2 G2 A8- | %62
w: mee- re kent|d'an- der|wel.|||Men sou- de niet|moe- ghen een baey- ken|dra- * * ghen,|
 A8 z8 | z8 z4 A4 | c4 c4 B6 A2 | A4 G4 A8- | A8 z8 | z8 z4 A4 | A2 A2 A2 A2 A2 F2 G2 A2 | %69
w: |ghe-|maeckt al naer den|nieu- wen snee.||Men|sou- de dees com- mee- re moe- ten|
 B4 A4 A4 A2 A2 | G4 F4 F4 E4 | F8 A4 A2 A2 | G4 F4 F4 E4 | F4 c4 B4 G4 | A4 F4 F4 E4 | %75
w: vra- ghen, of sy mo-|yen haer al- tyts|me, of sy mo-|yen haer al- tyts|me. Speelt u- wen|rel, com- me- ret|
 F4 E4 E4 E2 E2 | G4 G2 F2 F4 E4 | F8 E4 E2 F2 | G4 G2 F2 F4 E4 | F8 E4 E2 F2 | G4 G2 F2 F4 E4 | %81
w: wel. Com- me- re, com-|pe- re, voucht dat niet|wel, d'ee- ne com-|mee- re kent d'an- der|wel, d'ee- ne com-|mee- re kent d'an- der|
 !3!F8 F4 | F8 G4 | A4 A4 F4 | G8 A4 | B8 A4 | A8 A4 | G8 F4 | F8 E4 | F8 F4 | F8 G4 | A4 A4 F4 | %92
w: wel. Wy|sul- lent|dra- ghen en|nie- mant|vra- gen,|tri- um-|phe- ren|ach- ter-|ste, wy|sul- lent|dra- ghen en|
 G8 A4 | B8 A4 | A8 A4 | G8 F4 | F8 E4 | F8 F4 | G8 G4 | F8 F4 | D4 E8 | F8 z4 | A4 A4 A4 | %103
w: nie- mant|vra- gen,|tri- um-|phe- ren|ach- ter-|ste, want|tvoucht ons|wel, want|tvoucht ons|wel,|Com- me- re,|
 c4 c4 c4 | B4 G4 G4 | A8 G4 | G6 G2 G4 | G6 G2 F4 | F8 E4 | F8 G4 | G6 G2 G4 | G6 G2 F4 | F8 E4 | %113
w: com- pe- re,|voucht dat niet|wel, Com-|me- re, com-|pe- re, voucht|dat niet|wel, Com-|me- re, com-|pe- re, voucht|dat niet|
 F8 F4 | F8 F4 | B8 B4 | A8 F4 | G8 z4 | G6 G2 G4 | c6 c2 B4 | A8 G4 | F8 F4 | F8 F4 | F8 F4 | %124
w: wel, naer|u- wen|rel, com-|me- ret|wel:|d'ee- ne com-|mee- re kent|d'an- der|wel. Com-|me- ret|wel naer|
 F8 F4 | E8 z4 | E6 E2 E4 | E6 E2 E4 | F8 E4 | F8 z4 | E6 E2 E4 | E6 E2 E4 | F8 E4 | F12 |] %134
w: u- wen|rel,|d'ee- ne com-|mee- re kent|d'an- der|wel,|d'ee- ne com-|mee- re kent|d'an- der|wel.|
V:2
 z16 | z16 | z4 F4 F6 F2 | A4 F8 A4 | B4 c4 B8 | z4 c4 d6 d2 | c4 f4 e4 f4 | f8 f4 f4 | %8
w: ||Een meys- ken|eens voer- by|pas- seer- de,|Een meys- ken|eens voer- by pas-|seer- de, aan|
 f6 f2 e4 d4 | d4 c4 A4 c4 | d6 c2 B4 A4 | B4 G4 A4 f4 | f6 f2 e4 d4 | d4 c4 A4 c4 | %14
w: hoer- de ee- nen|soe- ten rel, aan|hoer- de ee- nen|soe- ten rel, aan|hoer- de ee- nen|soe- ten rel, Hoe|
 c2 c2 d2 A2 c2 d2 _e4 | d8 z8 | z8 d4 d2 d2 | f2 f2 _e2 c2 d4 f4 | f4 f2 f2 e4 d4 | d4 c2 c2 A8 | %20
w: dat een meys- ken di- vi- seer-|de,|Hoe dat een|meys- ken di- vi- seer- de|te- ghen een hae- re|nich- te soe wel,|
 c4 d2 c2 B4 A4 | B4 F2 F2 c8 | c4 c2 d2 e4 d4 | d4 c2 c2 | !3!A8 f4 | d4 e8 | f8 c4 | d4 c8 | %28
w: te- ghen een hae- re|nich- te soe wel,|te- ghen een hae- re|nich- te soe|wel. Com-|mee- ret|wel naer|u- wen|
 A8 z4 | f8 f4 | f4 g4 f4 | f8 e4 | f8 e4 | e6 e2 e4 | e6 e2 e4 | d8 c4 | c8 e4 | e6 e2 e4 | %38
w: rel,|d'een com-|mee- re kent|d'an- der|wel. Com-|mee- re, com-|mee- re, com-|mee- ret|wel, Com-|mee- re, com-|
 e6 e2 e4 | d8 c4 | A8 c4 | c8 c4 | f8 f4 | f8 f4 | e8 z4 | e6 e2 e4 | e6 e2 e4 | f8 e4 | f8 d4 | %49
w: mee- re, com-|mee- ret|wel, Com-|mee- ret|wel met|moe- de|fel,|d'ee- ne com-|mee- re kent|d'an- der|wel, Com-|
 d8 d4 | d8 d4 | c8 B4 | c8 z4 | c6 c2 c4 | c6 A2 B4 | c8 c4 | A12- |[M:4/4] A16 | z16 | z8 z4 f4 | %60
w: mee- ret|wel met|moe- de|fel,|d'ee- ne com-|mee- re kent|d'an- der|wel.|||Men|
 f4 f2 e2 d4 c2 c2 | d4 f4 e4 d2 d2 | f4 f4 e4 d4 | d4 c4 d4 c4 | f4 e4 g6 f2 | f4 d4 d4 c4 | %66
w: sou- de niet moe- ghen een|baey- ken dra- ghen, ghe-|maeckt al naer den|nieu- wen snee, ghe-|maeckt al naer den|nieu- wen snee. Men|
 c2 c2 c2 c2 d2 d2 c2 c2 | d4 c4 z4 f4 | f2 f2 f2 f2 f2 f2 e2 c2 | d4 c4 f4 f2 f2 | e4 d4 d4 c4 | %71
w: sou- de dees com- mee- re moe- ten|vra- ghen, Men|sou- de dees com- mee- re moe- ten|vra- ghen, of sy mo-|yen haer al- tyts|
 A8 c4 c2 d2 | e4 d4 d4 c4 | A4 f4 f4 e4 | f4 c4 d4 c4 | A4 c4 c4 c2 c2 | c4 c2 c2 d4 c4 | %77
w: me, of sy mo-|yen haer al- tyts|me. Want tvuecht ons|wel, want tvuecht ons|wel. Com- me- re, com-|pe- re, voucht dat niet|
 A8 c4 c2 c2 | c4 c2 c2 d4 c4 | A8 c4 c2 c2 | c4 c2 c2 d4 c4 | !3!A8 c4 | d8 d4 | f4 f4 f4 | %84
w: wel, d'ee- ne com-|mee- re kent d'an- der|wel, d'ee- ne com-|mee- re kent d'an- der|wel. Wy|sul- lent|dra- ghen en|
 d8 f4 | f8 f4 | f8 f4 | e8 d4 | d4 c8 | A8 c4 | d8 d4 | f4 f4 f4 | d8 f4 | f8 f4 | f8 f4 | e8 d4 | %96
w: nie- mant|vra- gen,|tri- um-|phe- ren|ach- ter-|ste, wy|sul- lent|dra- ghen en|nie- mant|vra- gen,|tri- um-|phe- ren|
 d4 c8 | A8 f4 | d4 e8 | f8 c4 | d4 c8 | A8 z4 | f4 f4 f4 | g4 g4 f4 | f4 f4 e4 | f8 e4 | %106
w: ach- ter-|ste, want|tvoucht ons|wel, want|tvoucht ons|wel,|Com- me- re,|com- pe- re,|voucht dat niet|wel, Com-|
 e6 e2 e4 | e6 e2 e4 | d8 c4 | c8 e4 | e6 e2 e4 | e6 e2 e4 | d8 c4 | A8 c4 | c8 c4 | f8 f4 | %116
w: mee- re, com-|mee- re, com-|mee- ret|wel, Com-|mee- re, com-|mee- re, com-|mee- ret|wel, naer|u- wen|rel, com-|
 f8 f4 | e8 z4 | e6 e2 e4 | e6 e2 e4 | f8 e4 | f8 d4 | d8 d4 | d8 d4 | c8 B4 | c8 z4 | c6 c2 c4 | %127
w: me- ret|wel:|d'ee- ne com-|mee- re kent|d'an- der|wel. Com-|me- ret|wel naer|u- wen|rel,|d'ee- ne com-|
 c4 A4 B4 | c8 c4 | A8 z4 | c6 c2 c4 | c4 A4 B4 | c8 c4 | A12 |] %134
w: mee- re kent|d'an- der|wel,|d'ee- ne com-|mee- re kent|d'an- der|wel.|
V:3
 z8 F8 | F6 G2 A4 F4 | G4 A4 B4 A4 | z4 A4 A4 A4 | G4 F4 F4 E4 | F4 A4 B6 B2 | A4 c4 c4 c4 | %7
w: Een|meys- ken eens voer-|by pas- seer- de,|aan hoer- de|ee- nen soe- ten|rel, Een meys- ken|eens voer- by pas-|
 d8 c4 c4 | c6 c2 c4 A4 | B4 G4 F4 A4 | A6 A2 G4 F4 | F4 E4 F4 c4 | c6 c2 c4 A4 | B4 G4 F8- | %14
w: seer- de, aan|hoer- de ee- nen|soe- ten rel, aan|hoer- de ee- nen|soe- ten rel, aan|hoer- de ee- nen|soe- ten rel,|
 F8 z8 | z4 F4 F2 G2 A2 F2 | G2 A2 B4 A2 A2 B2 B2 | c2 d2 c2 c2 B4 c4 | c4 c2 c2 c4 A4 | %19
w: |Hoe dat een meys- ken|di- vi- seer- de, Hoe dat een|meys- ken di- vi- seer- de|te- ghen een hae- re|
 B4 G2 G2 F8 | A4 A2 A2 G4 F4 | F4 E2 E2 F8 | A4 A2 B2 c4 A4 | B4 G2 G2 | !3!F8 A4 | B4 c8 | %26
w: nich- te soe wel,|te- ghen een hae- re|nich- te soe wel,|te- ghen een hae- re|nich- te soe|wel. Com-|mee- ret|
 F8 A4 | G4 G8 | F8 z4 | c8 c4 | c4 c4 A4 | B8 c4 | F8 c4 | c6 c2 c4 | c6 c2 c4 | B4 G8 | A8 c4 | %37
w: wel naer|u- wen|rel,|d'een com-|mee- re kent|d'an- der|wel. Com-|mee- re, com-|mee- re, com-|mee- ret|wel, Com-|
 c6 c2 c4 | c6 c2 c4 | B4 G8 | F8 F4 | A8 A4 | d8 d4 | d8 d4 | G8 z4 | c6 c2 c4 | A6 A2 G4 | %47
w: mee- re, com-|mee- re, com-|mee- ret|wel, Com-|mee- ret|wel met|moe- de|fel,|d'ee- ne com-|mee- re kent|
 F4 c8 | F8 F4 | F8 F4 | B8 B4 | A8 F4 | G8 z4 | G6 G2 G4 | c6 c2 B4 | A4 G8 | F12 | %57
w: d'an- der|wel, Com-|mee- ret|wel met|moe- de|fel,|d'ee- ne com-|mee- re kent|d'an- der|wel.|
[M:4/4] z4 c4 c4 c2 B2 | B4 B2 G2 A4 c4 | B4 A4 z8 | z16 | z8 A8 | c4 c4 B6 A2 | A4 G4 A4 c4 | %64
w: Men sou- de niet|moe- ghen een baey- ken|dra- ghen,||ghe-|maeckt al naer den|nieu- wen snee, ghe-|
 c4 c4 d6 d2 | c4 B4 A4 A4 | A2 A2 A2 A2 A2 F2 G2 A2 | B4 A4 z4 c4 | c2 c2 c2 c2 d2 d2 c2 c2 | %69
w: maeckt al naer den|nieu- wen snee. Men|sou- de dees com- mee- re moe- ten|vra- ghen, Men|sou- de dees com- mee- re moe- ten|
 B4 c4 c4 c2 c2 | c4 A4 B4 G4 | F8 A4 A2 B2 | c4 A4 B4 G4 | F4 A4 B4 c4 | F4 A4 G4 G4 | %75
w: vra- ghen, of sy mo-|yen haer al- tyts|me, of sy mo-|yen haer al- tyts|me. Com- me- ret|wel naer u- wen|
 F4 G4 G4 G2 G2 | G4 G2 A2 G4 G4 | F8 G4 G2 G2 | G4 G2 A2 G4 G4 | F8 G4 G2 G2 | G4 G2 A2 G4 G4 | %81
w: rel, Com- me- re, com-|me- re, com- me- ret|wel, d'ee- ne com-|mee- re kent d'an- der|wel, d'ee- ne com-|mee- re kent d'an- der|
 !3!F8 A4 | A8 B4 | c4 c4 d4 | B8 c4 | d8 c4 | c8 c4 | c8 A4 | B4 G8 | F8 A4 | A8 B4 | c4 c4 d4 | %92
w: wel. Wy|sul- lent|dra- ghen en|nie- mant|vra- gen,|tri- um-|phe- ren|ach- ter-|ste, wy|sul- lent|dra- ghen en|
 B8 c4 | d8 c4 | c8 c4 | c8 A4 | B4 G8 | F8 A4 | B4 c8 | F8 A4 | G8 G4 | F8 z4 | c4 c4 c4 | %103
w: nie- mant|vra- gen,|tri- um-|phe- ren|ach- ter-|ste, want|tvoucht ons|wel, want|tvoucht ons|wel,|Com- me- re,|
 c4 c4 A4 | B4 B4 c4 | F8 c4 | c6 c2 c4 | c6 c2 c4 | B4 G8 | A8 c4 | c6 c2 c4 | c6 c2 c4 | B4 G8 | %113
w: com- pe- re,|voucht dat niet|wel, Com-|me- re, com-|me- re, com-|me- ret|wel, Com-|me- re, com-|me- re, com-|me- ret|
 F8 A4 | A8 A4 | d8 d4 | d8 d4 | G8 z4 | c6 c2 B4 | A6 A2 G4 | F4 c8 | F8 F4 | F8 F4 | B8 B4 | %124
w: wel, naer|u- wen|rel, com-|me- ret|wel:|d'ee- ne com-|mee- re kent|d'an- der|wel. Naer|u- wen|rel, com-|
 B8 F4 | G8 z4 | G6 G2 G4 | c6 c2 B4 | A8 G4 | F8 z4 | G6 G2 G4 | c6 c2 B4 | A8 G4 | F12 |] %134
w: me- ret|wel,|d'ee- ne com-|mee- re kent|d'an- der|wel,|d'ee- ne com-|mee- re kent|d'an- der|wel.|
V:4
 B,,8 B,,6 C,2 | D,4 B,,4 C,4 D,4 | E,4 D,4 z4 D,4 | D,4 D,4 D,6 C,2 | B,,4 A,,4 G,,8 | %5
w: Een meys- ken|eens voer- by pas-|seer- de, aan|hoer- de ee- nen|soe- ten rel,|
 F,,4 F,4 B,,6 B,,2 | F,4 F,4 C,4 F,4 | B,,2 C,2 D,2 E,2 F,4 F,4 | F,6 F,2 C,4 D,4 | %9
w: * Een meys- ken|eens voer- by pas-|seer- * * * de, aan|hoer- de ee- nen|
 B,,4 C,4 F,,4 F,4 | D,6 D,2 _E,4 F,4 | B,,4 C,4 F,,4 F,4 | F,6 F,2 C,4 D,4 | B,,4 C,4 F,,8- | %14
w: soe- ten rel, aan|hoer- de ee- nen|soe- ten rel, aan|hoer- de ee- nen|soe- ten rel,|
 F,,8 z8 | B,,4 B,,2 C,2 D,2 B,,2 C,2 D,2 | _E,4 D,4 D,4 B,,2 B,,2 | F,2 D,2 _E,2 F,2 B,,4 F,4 | %18
w: |Hoe dat een meys- ken di- vi-|seer- de, Hoe dat een|meys- ken di- vi- seer- de|
 F,4 F,2 F,2 C,4 D,4 | B,,4 C,2 C,2 F,,8 | F,4 D,2 D,2 E,4 F,4 | B,,4 C,2 C,2 F,,8 | %22
w: te- ghen een hae- re|nich- te soe wel,|te- ghen een hae- re|nich- te soe wel,|
 F,4 F,2 F,2 C,4 D,4 | B,,4 C,2 C,2 | !3!F,,8 z4 | z12 | z8 A,,4 | B,,4 C,8 | F,,12- | F,,12 | %30
w: te- ghen een hae- re|nich- te soe|wel.||naer|u- wen|rel.||
 z12 | z12 | z4 z4 C,4 | C,6 C,2 C,4 | C,6 C,2 A,,4 | B,,8 C,4 | F,,8 C,4 | C,6 C,2 C,4 | %38
w: ||Com-|mee- re, com-|mee- re, com-|mee- ret|wel, Com-|mee- re, com-|
 C,6 C,2 A,,4 | B,,8 C,4 | F,,8 F,4 | F,8 F,4 | B,,8 B,,4 | D,8 D,4 | C,12- | C,12 | z12 | z12 | %48
w: mee- re, com-|mee- ret|wel, Com-|mee- ret|wel met|moe- de|fel,||||
 z8 B,,4 | B,,8 B,,4 | B,,8 B,,4 | F,8 D,4 | C,8 z4 | C,6 C,2 C,4 | A,,6 A,,2 G,,4 | F,,4 C,8 | %56
w: Com-|mee- ret|wel met|moe- de|fel,|d'ee- ne com-|mee- re kent|d'an- der|
 F,,12- |[M:4/4] F,,8 z4 F,4 | F,4 F,2 E,2 D,4 C,2 C,2 | D,4 F,4 E,4 D,4 | z16 | z8 z4 D,4 | %62
w: wel.|* Men|sou- de niet moe- ghen een|baey- ken dra- ghen,||ghe-|
 A,4 A,4 G,6 D,2 | F,4 E,4 D,4 F,4 | F,4 A,4 G,6 D,2 | F,4 G,4 D,4 F,4 | %66
w: maeckt al naer den|nieu- wen snee, ghe-|maeckt al naer den|nieu- wen snee. Men|
 F,2 F,2 F,2 F,2 F,2 D,2 E,2 F,2 | B,,4 F,4 z4 F,4 | F,2 F,2 F,2 F,2 F,2 D,2 E,2 F,2 | %69
w: sou- de dees com- mee- re moe- ten|vra- ghen, Men|sou- de dees com- mee- re moe- ten|
 B,,4 F,4 F,4 F,2 F,2 | C,4 D,4 B,,4 C,4 | F,,8 F,4 F,2 F,2 | C,4 D,4 B,,4 C,4 | F,,8 z8 | %74
w: vra- ghen, of sy mo-|yen haer al- tyts|me, of sy mo-|yen haer al- tyts|me.|
 z4 A,,4 B,,4 C,4 | F,,4 C,4 C,4 C,2 C,2 | C,4 C,2 A,,2 B,,4 C,4 | F,,8 C,4 C,2 C,2 | %78
w: Speelt u- wen|rel, Com- me- re, com-|me- re, com- me- ret|wel, d'ee- ne com-|
 C,4 C,2 A,,2 B,,4 C,4 | F,,8 C,4 C,2 C,2 | C,4 C,2 A,,2 B,,4 C,4 | !3!F,,8 F,4 | D,8 B,4 | %83
w: mee- re kent d'an- der|wel, d'ee- ne com-|mee- re kent d'an- der|wel. Wy|sul- lent|
 F,4 F,4 D,4 | G,8 F,4 | B,,8 F,4 | F,8 F,4 | C,8 D,4 | B,,4 C,8 | F,,8 F,4 | D,8 G,4 | %91
w: dra- ghen en|nie- mant|vra- gen,|tri- um-|phe- ren|ach- ter-|ste, wy|sul- lent|
 F,4 F,4 D,4 | G,8 F,4 | B,,8 F,4 | F,8 F,4 | C,8 D,4 | B,,4 C,8 | F,,8 z4 | z12 | z8 A,,4 | %100
w: dra- ghen en|nie- mant|vra- gen,|tri- um-|phe- ren|ach- ter-|ste,||want|
 B,,4 C,8 | F,,12- | F,,12 | z12 | z12 | z8 C,4 | C,6 C,2 C,4 | C,6 C,2 A,,4 | B,,8 C,4 | %109
w: tvoucht ons|wel,||||Com-|me- re, com-|me- re, com-|me- ret|
 F,,8 C,4 | C,6 C,2 C,4 | C,6 C,2 A,,4 | B,,8 C,4 | F,,8 F,4 | F,8 F,4 | B,,8 B,,4 | D,8 D,4 | %117
w: wel, Com-|me- re, com-|me- re, com-|me- ret|wel, naer|u- wen|rel, com-|me- ret|
 C,12- | C,12 | z12 | z12 | z8 B,,4 | B,,8 B,,4 | B,,8 B,,4 | F,8 D,4 | C,8 z4 | C,6 C,2 C,4 | %127
w: wel:||||Com-|me- ret|wel naer|u- wen|rel,|d'ee- ne com-|
 A,,6 A,,2 G,,4 | F,,4 C,8 | F,,8 z4 | C,6 C,2 C,4 | A,,6 A,,2 G,,4 | F,,4 C,8 | F,,12 |] %134
w: mee- re kent|d'an- der|wel,|d'ee- ne com-|mee- re kent|d'an- der|wel.|

